frontend/public/svg/logos/windows.svg

<svg width="167" height="162" viewBox="0 0 167 162" fill="none" xmlns="http://www.w3.org/2000/svg">
<g clip-path="url(#clip0)">
<path d="M164.133 66.6876C163.465 49.6638 162.792 32.6397 162.113 15.6156C162.06 12.6683 161.802 9.72833 161.34 6.8169C160.635 2.89988 158.548 1.20171 154.557 1.35661C152.048 1.51537 149.56 1.91925 147.129 2.56192C139.217 4.43314 132.082 6.13606 124.884 8.0296C91.9169 16.6998 57.0512 27.7296 18.2951 41.7476C14.4313 43.1443 10.719 44.8167 6.78822 46.5869C4.95835 47.4106 3.06675 48.2626 1.12859 49.0994C1.00773 49.1516 0.904858 49.2381 0.832544 49.3481C0.760231 49.4581 0.721648 49.5866 0.721659 49.7183C0.721659 50.3943 0.71712 50.9654 0.712526 51.4774C0.70465 52.4127 0.698758 53.1511 0.72895 53.8822C0.831339 56.3704 0.95597 58.8573 1.08067 61.3455C1.33402 66.3901 1.59662 71.6068 1.65241 76.7328C1.75086 85.7535 1.718 94.9298 1.68125 103.803C1.66549 107.803 1.65392 111.804 1.64647 115.805C1.64122 121.944 2.91058 123.507 8.79465 124.601C10.0049 124.827 11.2172 125.045 12.4308 125.264C17.0967 126.105 21.9221 126.974 26.546 128.222C37.9282 131.291 49.4679 134.538 60.6283 137.678C66.774 139.408 72.9219 141.131 79.0711 142.846C102.733 149.422 128.254 156.083 154.55 160.264C155.906 160.506 157.278 160.644 158.655 160.678C159.926 160.767 161.189 160.424 162.24 159.704C163.779 158.512 164.279 156.265 164.589 153.024C166.031 136.881 166.377 120.658 165.625 104.467C165.124 91.8745 164.626 79.2814 164.133 66.6876ZM152.312 75.0336C151.825 75.0834 151.328 75.1399 150.83 75.197C149.257 75.4037 147.675 75.5291 146.09 75.5737C129.143 75.7536 111.912 75.8914 95.2479 76.0253L85.5124 76.1034C83.8886 76.1172 82.2668 76.1126 80.4783 76.1093L78.3058 76.1067L75.5334 32.8701C104.501 23.944 128.937 17.5051 152.312 12.6377V75.0336ZM152.234 87.2106C154.837 96.247 154.944 133.753 152.4 149.168C132.513 146.342 112.751 141.156 93.6352 136.139C89.2312 134.982 84.8167 133.833 80.3916 132.69L79.0022 87.8328C86.1392 86.2097 132.093 85.7929 152.234 87.2086V87.2106ZM32.1937 119.512C27.9794 118.557 23.7637 117.744 19.3006 116.886C17.4439 116.529 15.553 116.165 13.6154 115.781C12.8968 110.236 12.4907 104.654 12.3992 99.0634C12.2607 95.1976 12.1183 91.209 11.7731 87.1496H66.5692C68.0919 93.0454 68.6471 115.907 67.5537 128.433C63.8319 128.081 60.2181 126.964 56.7165 125.88C54.6786 125.25 52.571 124.598 50.4563 124.1C47.638 123.436 44.7849 122.69 42.025 121.97C38.8136 121.128 35.4912 120.259 32.1937 119.512ZM66.4156 75.5455C60.0494 77.1758 21.3202 78.5456 11.5867 77.0124L9.60523 53.6611C22.8573 49.0398 35.9716 44.9003 49.846 40.5212C55.2509 38.8147 60.8304 37.0536 66.4156 35.2625V75.5455Z" fill="black"/>
</g>
<defs>
<clipPath id="clip0">
<rect width="166.053" height="160.146" fill="white" transform="translate(0.508423 0.900391)"/>
</clipPath>
</defs>
</svg>

<svg xmlns="http://www.w3.org/2000/svg" width="167" height="162" fill="none" viewBox="0 0 167 162"><g clip-path="url(#a)"><path fill="#000" d="M164.133 66.688q-1.002-25.536-2.02-51.072a63 63 0 0 0-.773-8.8c-.705-3.916-2.792-5.614-6.783-5.46a38.6 38.6 0 0 0-7.428 1.206c-7.912 1.871-15.047 3.574-22.245 5.468-32.967 8.67-67.833 19.7-106.589 33.718-3.864 1.396-7.576 3.069-11.507 4.839-1.83.824-3.721 1.676-5.66 2.512a.67.67 0 0 0-.406.62c0 .675-.005 1.246-.01 1.758-.007.936-.013 1.674.017 2.405.102 2.488.227 4.975.352 7.464.253 5.044.516 10.26.571 15.387.099 9.02.066 18.197.03 27.07q-.025 6-.036 12.002c-.005 6.139 1.265 7.702 7.149 8.796 1.21.226 2.422.444 3.636.663 4.666.841 9.491 1.71 14.115 2.958 11.382 3.069 22.922 6.316 34.082 9.456a7947 7947 0 0 0 18.443 5.168c23.662 6.576 49.183 13.237 75.479 17.418a27 27 0 0 0 4.105.414 5.64 5.64 0 0 0 3.585-.974c1.539-1.192 2.039-3.439 2.349-6.68a359 359 0 0 0 1.036-48.557q-.752-18.89-1.492-37.78m-11.821 8.346c-.487.05-.984.106-1.482.163a46 46 0 0 1-4.74.377c-16.947.18-34.178.317-50.842.451l-9.736.078c-1.623.014-3.245.01-5.034.006l-2.172-.002-2.773-43.237c28.968-8.926 53.404-15.365 76.779-20.232zm-.078 12.177c2.603 9.036 2.71 46.542.166 61.957-19.887-2.826-39.649-8.012-58.765-13.029a3309 3309 0 0 0-13.243-3.449l-1.39-44.857c7.137-1.623 53.091-2.04 73.232-.624zm-120.04 32.301c-4.215-.955-8.43-1.768-12.893-2.626-1.857-.357-3.748-.721-5.686-1.105A149 149 0 0 1 12.4 99.063c-.138-3.865-.28-7.854-.626-11.913H66.57c1.523 5.895 2.078 28.757.985 41.283-3.722-.352-7.336-1.469-10.837-2.553-2.038-.63-4.146-1.282-6.26-1.78-2.819-.664-5.672-1.41-8.432-2.13-3.211-.842-6.534-1.711-9.831-2.458m34.222-43.966c-6.367 1.63-45.096 3-54.83 1.466l-1.98-23.35c13.251-4.622 26.366-8.762 40.24-13.14 5.405-1.707 10.984-3.468 16.57-5.26z"/></g><defs><clipPath id="a"><path fill="#fff" d="M.508.9h166.053v160.146H.508z"/></clipPath></defs></svg>
